static/assets/img/icons/theme/design/brush.svg

<svg height="24" viewBox="0 0 24 24" width="24" xmlns="http://www.w3.org/2000/svg"><g fill="none" fill-rule="evenodd"><path d="m0 0h24v24h-24z" opacity="0"/><g fill="#000"><path d="m13.5 6c-.16257 2.28571429-.7200455 3.78571429-1.6724265 4.5 0 0 .6724265-6.5-1.2540882-8.5 0 0 0 3.92857143-1.78571424 7.14285714-.83705219 1.50669396-1.78571429 2.99896806-1.78571429 4.99999996 0 2.8571429 3.46766093 3.8571429 5.00288073 3.8571429 1.7976047 0 4.9950625-1 4.9950625-4.5 0-1.4391798-1.1666667-3.93917984-3.5-7.5z"/><path d="m9.72075922 20h4.55848158c.4304304 0 .8125692.2754301.9486833.6837722l.7720759 2.3162278h-8l.77207592-2.3162278c.13611405-.4083421.51825289-.6837722.9486833-.6837722z" opacity=".3"/></g></g></svg>

<svg width="24px" height="24px" viewBox="0 0 24 24" version="1.1" xmlns="http://www.w3.org/2000/svg" xmlns:xlink="http://www.w3.org/1999/xlink">
    <title>Icon For Brush</title>
    <g stroke="none" stroke-width="1" fill="none" fill-rule="evenodd">
        <rect opacity="0" x="0" y="0" width="24" height="24"></rect>
        <path d="M13.5,6 C13.33743,8.28571429 12.7799545,9.78571429 11.8275735,10.5 C11.8275735,10.5 12.5,4 10.5734853,2 C10.5734853,2 10.5734853,5.92857143 8.78777106,9.14285714 C7.95071887,10.6495511 7.00205677,12.1418252 7.00205677,14.1428571 C7.00205677,17 10.4697177,18 12.0049375,18 C13.8025422,18 17,17 17,13.5 C17,12.0608202 15.8333333,9.56082016 13.5,6 Z" fill="#000000"></path>
        <path d="M9.72075922,20 L14.2792408,20 C14.7096712,20 15.09181,20.2754301 15.2279241,20.6837722 L16,23 L8,23 L8.77207592,20.6837722 C8.90818997,20.2754301 9.29032881,20 9.72075922,20 Z" fill="#000000" opacity="0.3"></path>
    </g>
</svg>
